X: 38666
T: Strange Dance, The
R: jig
M: 6/8
K: Eminor
EEE BBB|eee ggg|eee _e3|ccc BBB|
FFF EEE|BBB eee|_e3 ccc|BBB FFF:|
EEE GGG|EGE AAA|EEE GGG|FFF E3|
EEE GGG|EEE AAA|BAG AGF|GFD E3:|

